!!!OTL: UND EIN GOTT IST
!!!ARE: Europa, Mitteleuropa, Deutschland
!!!SCT: F0309A
!!!YEM: Copyright 1995, estate of Helmut Schaffrath.
**kern
*ICvox
*Ivox
*M4/4
*k[b-e-a-]
*E-:
{4B-
4B-
=1
2e-
4e-
4e-
=2
2e-
4d
4c
=3
2.B-
4A-
=4
2B-
4r}
{4B-
=5
2A-
2G
=6
2F
4F
4F
=7
1F
=8
2F
4r}
{4g
=9
2g
4e-
4f
=10
2g
4f
4e-
=11
2e-
4f
4e-
=12
2e-
4r}
{4e-
=13
2f
4B-
4B-
=14
2e-
4c
4A-
=15
1d-
=16
2c}
{4c
4c
=17
2Bn
4Bn
4A-
=18
2c
4c
4c
=19
2d
2d
=20
2e-}
{4e-
4e-
=21
2e-
4e-
4e-
=22
2e-
4e-
4c
=23
1B-
=24
2B-
2B-
=25
2B-}
==
!!!AGN: Jugend - Lied, Moral, religioes
!! Strophenvariante von F0309
!!!ONB: ESAC (Essen Associative Code) Database: FINK
!!!AMT: simple quadruple
!!!AIN: vox
!!!EED: Helmut Schaffrath
!!!EEV: 1.0
*-
